assets/icons/adobe_photoshop.svg

<svg width="16" height="15" viewBox="0 0 16 15" fill="none" xmlns="http://www.w3.org/2000/svg">
<path d="M0.619995 5.46169C0.619995 3.59193 0.619995 2.65704 0.983877 1.94289C1.30396 1.3147 1.8147 0.803958 2.44289 0.483877C3.15704 0.119995 4.09193 0.119995 5.96169 0.119995H10.0383C11.9081 0.119995 12.843 0.119995 13.5571 0.483877C14.1853 0.803958 14.696 1.3147 15.0161 1.94289C15.38 2.65704 15.38 3.59193 15.38 5.46169V9.5383C15.38 11.4081 15.38 12.343 15.0161 13.0571C14.696 13.6853 14.1853 14.196 13.5571 14.5161C12.843 14.88 11.9081 14.88 10.0383 14.88H5.96169C4.09193 14.88 3.15704 14.88 2.44289 14.5161C1.8147 14.196 1.30396 13.6853 0.983877 13.0571C0.619995 12.343 0.619995 11.4081 0.619995 9.5383V5.46169Z" fill="#001E36"/>
<path d="M3.78285 10.935V4.44436C3.78285 4.40024 3.8013 4.37499 3.84435 4.37499C4.47989 4.37499 5.11515 4.33714 5.75083 4.33714C6.7824 4.33714 7.89931 4.68985 8.29082 5.76897C8.38307 6.03391 8.43225 6.30513 8.43225 6.58899C8.43225 7.13147 8.30927 7.57928 8.06325 7.93252C7.37607 8.91923 6.18504 8.90389 5.11742 8.90389V10.9287C5.12575 10.9886 5.07467 11.017 5.02517 11.017H3.85665C3.80745 11.017 3.78285 10.9917 3.78285 10.935ZM5.12353 5.59238V7.71175C5.54688 7.74275 5.98984 7.74612 6.39658 7.61086C6.84566 7.48129 7.09157 7.09262 7.09157 6.62684C7.10401 6.22996 6.88778 5.84915 6.51962 5.70592C6.11778 5.53882 5.55732 5.5288 5.12353 5.59238Z" fill="#31A8FF"/>
<path d="M12.2681 7.29305C12.082 7.19495 11.8838 7.1232 11.6789 7.07977C11.4157 7.01783 10.3773 6.80086 10.3769 7.34381C10.3861 7.64692 10.8673 7.79542 11.0799 7.88203C11.8263 8.13827 12.6708 8.5963 12.6542 9.51707C12.6771 10.6633 11.5665 11.1215 10.6145 11.1216C10.1189 11.1267 9.60266 11.05 9.14911 10.8372C9.10578 10.8143 9.07794 10.7653 9.07979 10.7154V9.61859C9.07489 9.57463 9.12212 9.5362 9.15902 9.56783C9.6034 9.83657 10.1301 9.96709 10.6442 9.97404C10.8712 9.97404 11.3209 9.95206 11.3176 9.61859C11.3176 9.29862 10.7795 9.15149 10.565 9.07021C10.2541 8.95924 9.95933 8.80547 9.68874 8.61322C9.31057 8.34349 9.07336 7.91102 9.07979 7.43522C9.07758 6.35595 10.0999 5.8715 11.0205 5.87129C11.4509 5.86771 11.9131 5.8996 12.3137 6.0744C12.3713 6.09132 12.3832 6.15205 12.383 6.2064V7.23211C12.3867 7.29579 12.316 7.31746 12.2681 7.29305Z" fill="#31A8FF"/>
</svg>

<svg width="16" height="15" viewBox="0 0 16 15" fill="none" xmlns="http://www.w3.org/2000/svg"><path d="M.62 5.462c0-1.87 0-2.805.364-3.52A3.34 3.34 0 0 1 2.443.485C3.157.12 4.092.12 5.962.12h4.076c1.87 0 2.805 0 3.52.364a3.34 3.34 0 0 1 1.458 1.459c.364.714.364 1.649.364 3.519v4.076c0 1.87 0 2.805-.364 3.52a3.34 3.34 0 0 1-1.459 1.458c-.714.364-1.649.364-3.519.364H5.962c-1.87 0-2.805 0-3.52-.364a3.34 3.34 0 0 1-1.458-1.459C.62 12.343.62 11.408.62 9.538V5.462z" fill="#001E36"/><path d="M3.783 10.935v-6.49c0-.045.018-.07.061-.07.636 0 1.271-.038 1.907-.038 1.032 0 2.15.353 2.54 1.432.093.264.142.535.142.82 0 .541-.123.99-.369 1.343-.687.986-1.878.97-2.946.97v2.026c.009.059-.042.087-.092.087H3.857c-.05 0-.074-.025-.074-.082zm1.34-5.343v2.12c.424.03.867.034 1.274-.101.449-.129.695-.517.695-.983.012-.397-.204-.778-.572-.921-.402-.167-.963-.177-1.396-.114z" fill="#31A8FF"/><path d="M12.268 7.293a2.275 2.275 0 0 0-.59-.213c-.262-.062-1.3-.28-1.301.264.01.303.49.451.703.538.746.256 1.59.714 1.574 1.635.023 1.146-1.088 1.604-2.04 1.605-.495.005-1.011-.072-1.465-.285a.134.134 0 0 1-.07-.122V9.62c-.005-.045.042-.084.08-.052.443.269.97.4 1.484.406.227 0 .677-.022.674-.355 0-.321-.538-.469-.753-.55a3.606 3.606 0 0 1-.876-.457 1.425 1.425 0 0 1-.61-1.178c-.002-1.08 1.02-1.563 1.94-1.564.43-.002.893.03 1.294.204.057.017.07.078.07.132v1.026c.003.064-.068.085-.116.06z" fill="#31A8FF"/></svg>
